X:1
T:Tell Mother I’ll Be There
T:Tell Mother I’ll Be There
T:Arranged by Robert Harkness
T:Charles Millard Fillmore, 1898
T:Public Domain Courtesy of the Cyber Hymnal™
T:Public Domain Courtesy of the Cyber Hymnal™
C:Arranged by Robert Harkness
Z:Public Domain
Z:Courtesy of the Cyber Hymnal™
%%score ( 1 2 ) ( 3 4 )
L:1/8
Q:1/4=100
M:4/4
K:Ab
V:1 treble 
V:2 treble 
V:3 bass 
V:4 bass 
V:1
 E | EE[A,C][CE] AA[DG][CA] | BFFF B3 A | AGGF FFGF | [DF][CE] [CE]>[DF] [CE]3 E | %5
w: 1.~When|I was but a lit- tle child how|well I re- col- lect How|I would grieve my mo- ther with my|fol- ly and ne- glect; And|
w: 2.~Though|I was oft- en way- ward, she was|al- ways kind and good; So|pa- tient, gen- tle, lov- ing when I|act- ed rough and rude; My|
w: 3.~When|I be- came a prod- i- gal, and|left the old roof- tree, She|al- most broke her lov- ing heart in|mourn- ing af- ter me; And|
w: 4.~One|day a mes- sage came to me, it|bade me quick- ly come If|I would see my mo- ther ere the|Sav- ior took her home; I|
 EE[A,C][CE] AA[DG][CA] | BFFF [=DB]3 [DA] | %7
w: now that she has gone to Heav’n I|miss her ten- der care: O|
w: child- hood griefs and tri- als she would|glad- ly with me share: O|
w: day and night she prayed to God to|keep me in His care: O|
w: prom- ised her, be- fore she died, for|heav- en to pre- pare: O|
 [DA][DG][DG][DF] [DE]!fermata![Dd] !fermata![Ec]>[EB] | [EA]6 z ||"^Refrain" [Ac] | %10
w: Sav- ior, tell my mo- ther, I’ll be|there!||
w: Sav- ior, tell my mo- ther, I’ll be|there!||
w: Sav- ior, tell my mo- ther, I’ll be|there!||
w: Sav- ior, tell my mo- ther, I’ll be|there!||
 [Ac]<[Ac] A>[AB] [Ac]3 [Ac] | [Ad]<[Ad] A>[AB] [Ac]3 [Ac] | [Ac][GB][GB][Ac] [Gd][Gd] [Gc]>[G=B] | %13
w: |||
w: |||
w: |||
w: |||
 ([A-c]4 [EA]3) [Ac] | [Ac]<[Ac] A>[AB] [Ac]3 [Ac] | [Ad][Ad] A>[AB] [Ac]3 [Ac] | %16
w: |||
w: |||
w: |||
w: |||
 [Ac][GB][GB][Gc] [Gd]!fermata![Gd] !fermata![Gc]>[EB] | [EA]6 z |] %18
w: ||
w: ||
w: ||
w: ||
V:2
 x | C2 x E2 x3 | D4 D4 | D2 D2 D2 D2 | x8 | C2 x E2 x3 | =D4 x4 | x8 | x7 || x | x2 A3/2 x9/2 | %11
 x2 A3/2 x9/2 | x8 | x8 | x2 A3/2 x9/2 | x2 A3/2 x9/2 | x8 | x7 |] %18
V:3
 z | [A,,A,]2 E,A, [C,A,]2 [B,,E,][A,,E,] | [D,F,]4 [B,,F,]4 | E,2 B,A, [E,A,]2 B,A, | %4
w: |~ ~ ~ ~ ~ ~|~ ~|~ ~ ~ ~ ~ ~|
 [A,,A,]2 [A,,A,]2 [A,,A,]3 z | [A,,A,]2 E,A, [C,A,]2 [B,,E,][A,,A,] | [D,F,]4 [B,,F,]3 [B,,B,] | %7
w: ~ ~ ~|~ ~ ~ ~ ~ ~|~ ~ ~|
 [E,B,][E,B,][E,B,][E,A,] [E,G,][F,A,] [E,A,]>[E,D] | [A,C]6 z || [A,E] | %10
w: ~ ~ ~ ~ ~ ~ ~ ~|~|Tell|
 [A,E]<[A,E] [A,C]>[A,D] [A,E]3 [A,E] | [A,F]<[A,F] [A,F]>[A,_F] [A,E]3 [A,E] | %12
w: mo- ther I’ll be there, in|an- swer to her prayer; This|
 [E,E][E,D][E,D][E,E] [E,F][E,F] [E,E]>[E,=D] | ([A,-E]4 [A,C]3) [A,E] | %14
w: mes- sage, bless- èd Sav- ior, to her|bear! * Tell|
 [A,E]<[A,E] [A,C]>[A,D] [A,E]3 [A,E] | [A,F][A,F] [A,F]>[A,_F] [A,E]3 [A,E] | %16
w: mo- ther I’ll be there, Heav’n’s|joys with her to share; Yes,|
 [E,E][E,D][E,D][E,E] [E,F][E,F] [E,E]>[E,D] | [A,,C]6 z |] %18
w: tell my dar- ling mo- ther I’ll be|there.|
V:4
 x | x2 A,,2 x4 | x8 | E,2 E,2 x E,2 x | x8 | x2 A,,2 x4 | x8 | x8 | x7 || x | x8 | x8 | x8 | x8 | %14
 x8 | x8 | x8 | x7 |] %18

